X:359
T: MIT BLANKEN GESCHOSSEN AUF MUTIGEN ROSSEN
N: F0631
O: Europa, Mitteleuropa, Deutschland
R: Soldaten -, Jaeger - Lied
M: 2/4
L: 1/8
K: Bb
f | f2ee | d2B
d | e2dd | c2c
c | ded
e | f2dd | e2dd | c2z
d | cdcd | e2c
c | dede | f2d
d | g2gg | f2d
d | e2cc | d2z
B | g2eg | f2d
f | e2cA | B2z

